static/icons/instagram.svg

<svg width="61" height="61" viewBox="0 0 61 61" fill="none" xmlns="http://www.w3.org/2000/svg">
<path d="M37.2394 2.82912C48.5263 6.12145 56.0588 4.7895 56.0588 26.3286C56.0588 47.8677 52.8764 69.3289 30.5588 51.3287C8.24129 33.3285 6.05883 37.8286 4.42188 21.829C2.78493 5.82929 23.0229 -1.31776 37.2394 2.82912Z" fill="#3179E8" fill-opacity="0.1"/>
<path d="M12 40L12 17C12 14.2386 14.2386 12 17 12H43C45.7614 12 48 14.2386 48 17V43C48 45.7614 45.7614 48 43 48H16" stroke="#3179E8" stroke-width="4" stroke-linecap="round" stroke-linejoin="round"/>
<path d="M40 22C41.1046 22 42 21.1046 42 20C42 18.8954 41.1046 18 40 18C38.8954 18 38 18.8954 38 20C38 21.1046 38.8954 22 40 22Z" fill="#3179E8"/>
<circle cx="30" cy="30" r="7.25" stroke="#679CEF" stroke-width="3.5"/>
</svg>

<svg width="61" height="61" fill="none" xmlns="http://www.w3.org/2000/svg"><path d="M37.24 2.83C48.525 6.12 56.058 4.79 56.058 26.328c0 21.539-3.183 43-25.5 25-22.318-18-24.5-13.5-26.137-29.5-1.637-16 18.6-23.147 32.817-19z" fill="#3179E8" fill-opacity=".1"/><path d="M12 40V17a5 5 0 0 1 5-5h26a5 5 0 0 1 5 5v26a5 5 0 0 1-5 5H16" stroke="#3179E8" stroke-width="4" stroke-linecap="round" stroke-linejoin="round"/><path d="M40 22a2 2 0 1 0 0-4 2 2 0 0 0 0 4z" fill="#3179E8"/><circle cx="30" cy="30" r="7.25" stroke="#679CEF" stroke-width="3.5"/></svg>
